icons/stack.svg

<svg xmlns="http://www.w3.org/2000/svg"><style>:root svg:not(:target){display:none}</style><svg viewBox="0 0 20 20" fill="none" id="arrow-left"><path fill-rule="evenodd" clip-rule="evenodd" d="m13.72 0 1.28 1.32-8.43 8.68 8.43 8.68-1.28 1.32-9.72-10 9.72-10Z" fill="#7859CF"></path></svg><svg viewBox="0 0 20 20" fill="none" id="arrow-right"><path fill-rule="evenodd" clip-rule="evenodd" d="m6.28 0-1.28 1.32 8.43 8.68-8.43 8.68 1.28 1.32 9.72-10-9.72-10Z" fill="#7859CF"></path></svg><svg viewBox="0 0 16 16" fill="none" id="burger"><path fill-rule="evenodd" clip-rule="evenodd" d="M0 2h16v1.5h-16v-1.5Zm0 5.25h16v1.5h-16v-1.5Zm16 5.25h-16v1.5h16v-1.5Z" fill="#333"></path></svg><svg viewBox="0 0 16 16" fill="none" id="busket"><path fill-rule="evenodd" clip-rule="evenodd" d="m5.66 3.88.23 2.79h4.22l.23-2.8a2.35 2.35 0 1 0-4.68 0Zm5.78 2.79.23-2.68a3.68 3.68 0 1 0-7.34 0l.23 2.68h-4.56l.19 1.33.82 5.71a2.67 2.67 0 0 0 2.64 2.29h8.7c1.33 0 2.46-.98 2.64-2.29l.82-5.71.19-1.33h-4.55Zm-.1 1.33h-.06l-.22 2.67h3.02l.38-2.67h-3.13Zm-1.4 0h-3.88l.22 2.67h3.44l.22-2.67Zm-5.22 0h-3.18l.38 2.67h3.02l-.22-2.67Zm1.9 6.67-.23-2.67h3.22l-.22 2.67h-2.78Zm4.33-2.67-.23 2.67h1.63c.67 0 1.23-.5 1.32-1.15l.22-1.52h-2.94Zm-5.9 0 .23 2.67h-1.63c-.67 0-1.23-.5-1.32-1.15l-.22-1.52h2.94Z" fill="#333"></path></svg><svg viewBox="0 0 52 56" fill="none" id="cheerfulness-icon"><path fill-rule="evenodd" clip-rule="evenodd" d="M24.9731 35.2L43.1345 4L9 30.6753L24.9731 35.2ZM31.0271 24.8L12.8657 56L47.0002 29.3247L31.0271 24.8Z" fill="#F0EBFF"></path><path fill-rule="evenodd" clip-rule="evenodd" d="M39.1345 0L5 26.6753L20.9731 31.2L8.86555 52.0001L43 25.3248L27.0269 20.8001L39.1345 0ZM40.8319 25.75L25.5143 21.4109L35.6566 3.98704L7.1681 26.2501L22.4858 30.5892L12.3435 48.013L40.8319 25.75Z" fill="#7859CF"></path></svg><svg viewBox="0 0 52 56" fill="none" id="comfortable-icon"><path d="M4 4H52L48 48L28 56L8 48L4 4Z" fill="#F0EBFF"></path><path fill-rule="evenodd" clip-rule="evenodd" d="M1.00412 0H0L0.0909091 1L4 44L24 52L44 44L47.9091 1L48 0H46.9959H1.00412ZM1.09503 1L1.45867 5H5H5.50198H6.00396H6.9H10.7H14.5H18.3H22.1H25.9H29.7H33.5H37.3H41.1H41.996H42.498H43H46.5413L46.905 1H1.09503ZM41.9069 6H41.1H37.3H33.5H29.7H25.9H22.1H18.3H14.5H10.7H6.9H6.09307L6.19397 7.1324L5.69594 7.17678L5.19792 7.22115L5.08911 6H1.54958L4.94041 43.2991L24 50.923L43.0596 43.2991L46.4504 6H42.9109L42.8021 7.22115L42.3041 7.17678L41.806 7.1324L41.9069 6ZM6.09178 11.6191L5.59375 11.6635L5.98958 16.1058L6.48761 16.0614L6.98564 16.017L6.5898 11.5747L6.09178 11.6191ZM6.88344 20.5037L6.38542 20.5481L6.78125 24.9904L7.27928 24.946L7.7773 24.9016L7.38147 20.4593L6.88344 20.5037ZM7.67511 29.3883L7.17708 29.4327L7.57292 33.875L8.07094 33.8306L8.56897 33.7862L8.17314 29.3439L7.67511 29.3883ZM8.46678 38.2729L7.96875 38.3173L8.16667 40.5385L10.1458 41.3462L10.3348 40.8832L10.5237 40.4203L9.10864 39.8428L8.9648 38.2286L8.46678 38.2729ZM14.2931 42.4986L14.1042 42.9615L18.0625 44.5769L18.2514 44.114L18.4403 43.6511L14.482 42.0357L14.2931 42.4986ZM22.2098 45.7294L22.0208 46.1923L24 47L25.9792 46.1923L25.7902 45.7294L25.6013 45.2664L24 45.9199L22.3987 45.2664L22.2098 45.7294ZM29.7486 44.114L29.9375 44.5769L33.8958 42.9615L33.7069 42.4986L33.518 42.0357L29.5597 43.6511L29.7486 44.114ZM37.6652 40.8832L37.8542 41.3462L39.8333 40.5385L40.0313 38.3173L39.5332 38.2729L39.0352 38.2286L38.8914 39.8428L37.4763 40.4203L37.6652 40.8832ZM39.9291 33.8306L40.4271 33.875L40.8229 29.4327L40.3249 29.3883L39.8269 29.3439L39.431 33.7862L39.9291 33.8306ZM40.7207 24.946L41.2188 24.9904L41.6146 20.5481L41.1166 20.5037L40.6185 20.4593L40.2227 24.9016L40.7207 24.946ZM41.5124 16.0614L42.0104 16.1058L42.4062 11.6635L41.9082 11.6191L41.4102 11.5747L41.0144 16.017L41.5124 16.0614Z" fill="#7859CF"></path></svg><svg viewBox="0 0 52 56" fill="none" id="ecology-icon"><path fill-rule="evenodd" clip-rule="evenodd" d="M41.7068 22.1225C42.4764 15.5574 43.2041 9.34979 48.9997 4C22.5072 3.99988 14.8468 12.128 10.9998 17.9999C2.45825 31.0373 10.0851 43.6704 11.7106 46.0864C10.7615 47.9699 9.8453 49.8228 8.96853 51.596C8.28756 52.9732 7.63037 54.3023 7 55.5603L7.88103 55.9999C8.51647 54.7318 9.17882 53.3919 9.86491 52.0041C10.713 50.2884 11.5975 48.4993 12.5122 46.6817C15.1065 47.5486 26.9646 50.8651 34.5 41.9999C40.1568 35.3449 40.9519 28.5617 41.7068 22.1225Z" fill="#F0EBFF"></path><path fill-rule="evenodd" clip-rule="evenodd" d="M8.23221 41.055C12.1899 33.2582 16.686 25.0948 21.2668 19.9999L22 20.6562C17.4314 25.7376 12.9304 33.9532 8.96782 41.779C9.34578 41.9019 9.88834 42.0652 10.5614 42.2326C11.9567 42.5795 13.8987 42.9402 16.0898 43.0003C20.4744 43.1204 25.753 42.0406 29.7381 37.3522C35.1982 30.9285 35.9631 24.4063 36.7206 17.9463L36.7357 17.8172C37.4173 12.0063 38.12 6.18297 42.6108 1.02289C30.8214 1.2525 23.1299 3.18456 17.9438 5.69784C12.4434 8.36348 9.69156 11.7161 7.83626 14.5479C3.2831 21.4976 3.51823 28.3097 4.90266 33.4262C5.59642 35.9902 6.57807 38.1203 7.38638 39.6085C7.70612 40.1972 7.99777 40.6837 8.23221 41.055ZM7.7106 42.0864C6.08506 39.6704 -1.54175 27.0373 6.9998 13.9999C10.7758 8.23634 18.2259 0.299055 43.5524 0.00822987C44.0285 0.00276494 44.5109 -2.58931e-06 44.9997 1.81779e-09C44.6406 0.331444 44.301 0.666183 43.9796 1.0041C39.1138 6.12034 38.4287 11.9641 37.7068 18.1225C36.952 24.5617 36.1568 31.3449 30.5 37.9999C22.9646 46.8651 11.1065 43.5486 8.51217 42.6817C7.59746 44.4993 6.71305 46.2884 5.86491 48.0041C5.17882 49.3919 4.51647 50.7318 3.88103 51.9999L3 51.5603C3.63037 50.3023 4.28756 48.9732 4.96853 47.596C5.8453 45.8228 6.76149 43.9699 7.7106 42.0864Z" fill="#7859CF"></path></svg><svg viewBox="0 0 16 16" fill="none" id="login"><path fill-rule="evenodd" clip-rule="evenodd" d="M10.67 4a2.67 2.67 0 1 1-5.34 0 2.67 2.67 0 0 1 5.34 0Zm1.33 0a4 4 0 1 1-8 0 4 4 0 0 1 8 0Zm-8.8 8.31a7.55 7.55 0 0 1 4.8-1.64c1.84 0 3.56.6 4.8 1.64a4.83 4.83 0 0 1 1.87 3.69h1.33c0-1.77-.84-3.46-2.34-4.71a8.88 8.88 0 0 0-5.66-1.96c-2.12 0-4.16.7-5.66 1.96a6.16 6.16 0 0 0-2.34 4.71h1.33c0-1.33.63-2.66 1.87-3.69Z" fill="#333"></path></svg><svg viewBox="0 0 52 56" fill="none" id="speed-icon"><path fill-rule="evenodd" clip-rule="evenodd" d="M24 4H32V7H29V10.0213C32.8152 10.1846 36.3896 11.2772 39.5027 13.0786C41.354 11.1476 45.7551 13.2459 44.2635 16.7365C44.2309 16.704 44.1983 16.6716 44.1656 16.6393C48.3853 20.8089 51 26.5991 51 33C51 45.7025 40.7025 56 28 56C15.2975 56 5 45.7025 5 33C5 26.3297 7.83949 20.3226 12.3757 16.1215C12.1588 16.3222 11.9457 16.5272 11.7365 16.7364C9.70719 13.7075 14.3199 10.5817 16.4975 13.0784C19.6105 11.2771 23.1849 10.1846 27 10.0213V7H24V4Z" fill="#F0EBFF"></path><path fill-rule="evenodd" clip-rule="evenodd" d="M27 1H21V2L23 2L25 2H27V1ZM25 3H27H28V2V1V0H27H21H20V1V2V3H21H23V6.02135C19.5463 6.1691 16.2898 7.07848 13.3944 8.58582L13.2544 8.42496C11.7163 6.6569 9.39521 6.98255 7.95484 8.02395C7.21517 8.55874 6.60253 9.33813 6.35204 10.2775C6.09438 11.2438 6.24251 12.3031 6.90574 13.293L7.02865 13.4765C3.28444 17.5676 1 23.017 1 29C1 41.7025 11.2975 52 24 52C36.7025 52 47 41.7025 47 29C47 23.0401 44.7331 17.6096 41.0145 13.5238L41.183 13.1295C41.6454 12.0474 41.6748 11.0021 41.3518 10.087C41.0339 9.1862 40.4018 8.48773 39.6665 8.02632C38.2591 7.14319 36.1326 6.97177 34.777 8.39054L34.5955 8.58053C31.7025 7.07636 28.4497 6.16892 25 6.02135V3ZM24 7C20.1406 7 16.5133 7.99379 13.36 9.73944L13 9.94732C11.5856 10.7639 10.2674 11.735 9.06924 12.8421C4.72198 16.8612 2 22.6127 2 29C2 41.1503 11.8497 51 24 51C36.1503 51 46 41.1503 46 29C46 22.9249 43.5376 17.4248 39.5563 13.4436C39.4319 13.3192 39.306 13.1963 39.1787 13.0749C37.9153 11.8707 36.5126 10.8207 35 9.94741L34.6357 9.7371C31.4835 7.99291 27.8577 7 24 7ZM12.4975 9.07845C11.0109 9.93867 9.62944 10.9605 8.37728 12.12C8.15986 12.3212 7.94622 12.5267 7.73652 12.7364C7.51811 12.4104 7.37664 12.0833 7.30079 11.7622C6.75443 9.44925 9.61277 7.44804 11.6466 8.42332C11.9539 8.57068 12.2424 8.78599 12.4975 9.07845ZM35.5027 9.07856C37.0672 9.98386 38.5152 11.0682 39.8186 12.3035C39.9688 12.4458 40.1171 12.5902 40.2635 12.7365C40.43 12.3468 40.523 11.9745 40.5544 11.6232C40.7632 9.28719 38.2441 7.88062 36.4507 8.48214C36.0978 8.60048 35.7731 8.79655 35.5027 9.07856ZM24 31C25.1046 31 26 30.1046 26 29C26 28.2049 25.536 27.5182 24.8641 27.1958L23.9501 27.0006C22.8686 27.0271 22 27.9121 22 29C22 30.1046 22.8954 31 24 31ZM23.3638 26.0676L22.0176 21.1316L21.9778 20.9855L22.0257 20.8419L23.5257 16.3419L24 14.9189L24.4743 16.3419L25.9743 20.8419L26.0222 20.9855L25.9824 21.1316L24.6362 26.0676C24.7657 26.0956 24.8921 26.1319 25.0148 26.176L32.5642 12.7549L33.4358 13.2451L25.8861 26.6669C26.5656 27.2169 27 28.0577 27 29C27 30.6569 25.6569 32 24 32C22.3431 32 21 30.6569 21 29C21 27.5614 22.0125 26.3594 23.3638 26.0676ZM23.0222 21.0145L24 24.5997L24.9778 21.0145L24 18.0811L23.0222 21.0145Z" fill="#7859CF"></path></svg></svg>

<svg xmlns="http://www.w3.org/2000/svg"><style>:root svg:not(:target){display:none}</style><svg viewBox="0 0 20 20" fill="none" id="arrow-left"><path fill-rule="evenodd" clip-rule="evenodd" d="m13.72 0 1.28 1.32-8.43 8.68 8.43 8.68-1.28 1.32-9.72-10 9.72-10Z" fill="#7859CF"></path></svg><svg viewBox="0 0 20 20" fill="none" id="arrow-right"><path fill-rule="evenodd" clip-rule="evenodd" d="m6.28 0-1.28 1.32 8.43 8.68-8.43 8.68 1.28 1.32 9.72-10-9.72-10Z" fill="#7859CF"></path></svg><svg viewBox="0 0 16 16" fill="none" id="burger"><path fill-rule="evenodd" clip-rule="evenodd" d="M0 2h16v1.5h-16v-1.5Zm0 5.25h16v1.5h-16v-1.5Zm16 5.25h-16v1.5h16v-1.5Z" fill="#333"></path></svg><svg viewBox="0 0 16 16" fill="none" id="busket"><path fill-rule="evenodd" clip-rule="evenodd" d="m5.66 3.88.23 2.79h4.22l.23-2.8a2.35 2.35 0 1 0-4.68 0Zm5.78 2.79.23-2.68a3.68 3.68 0 1 0-7.34 0l.23 2.68h-4.56l.19 1.33.82 5.71a2.67 2.67 0 0 0 2.64 2.29h8.7c1.33 0 2.46-.98 2.64-2.29l.82-5.71.19-1.33h-4.55Zm-.1 1.33h-.06l-.22 2.67h3.02l.38-2.67h-3.13Zm-1.4 0h-3.88l.22 2.67h3.44l.22-2.67Zm-5.22 0h-3.18l.38 2.67h3.02l-.22-2.67Zm1.9 6.67-.23-2.67h3.22l-.22 2.67h-2.78Zm4.33-2.67-.23 2.67h1.63c.67 0 1.23-.5 1.32-1.15l.22-1.52h-2.94Zm-5.9 0 .23 2.67h-1.63c-.67 0-1.23-.5-1.32-1.15l-.22-1.52h2.94Z" fill="#333"></path></svg><svg viewBox="0 0 52 56" fill="none" id="cheerfulness-icon"><path fill-rule="evenodd" clip-rule="evenodd" d="m24.97 35.2 18.16-31.2-34.13 26.68 15.97 4.52Zm6.06-10.4-18.16 31.2 34.13-26.68-15.97-4.52Z" fill="#F0EBFF"></path><path fill-rule="evenodd" clip-rule="evenodd" d="m39.13 0-34.13 26.68 15.97 4.52-12.1 20.8 34.13-26.68-15.97-4.52 12.1-20.8Zm1.7 25.75-15.32-4.34 10.15-17.42-28.5 22.26 15.33 4.34-10.15 17.42 28.5-22.26Z" fill="#7859CF"></path></svg><svg viewBox="0 0 52 56" fill="none" id="comfortable-icon"><path d="M4 4h48l-4 44-20 8-20-8-4-44Z" fill="#F0EBFF"></path><path fill-rule="evenodd" clip-rule="evenodd" d="M1 0h-1l.1 1 3.9 43 20 8 20-8 3.9-43 .1-1h-47Zm.1 1 .36 4h45.08l.37-4h-45.81Zm40.8 5h-35.8l.1 1.13-.5.05-.5.04-.11-1.22h-3.54l3.39 37.3 19.06 7.62 19.06-7.62 3.39-37.3h-3.54l-.1 1.22-.5-.04-.5-.05.1-1.13Zm-35.8 5.62-.5.04.39 4.45.5-.05.5-.04-.4-4.45-.5.05Zm.78 8.88-.5.05.4 4.44.5-.04.5-.05-.4-4.44-.5.04Zm.8 8.89-.5.04.4 4.45.5-.05.49-.04-.4-4.45-.5.05Zm.79 8.88-.5.05.2 2.22 1.98.8.18-.46.2-.46-1.42-.58-.15-1.61-.5.04Zm5.82 4.23-.19.46 3.96 1.62.2-.47.18-.46-3.96-1.61-.19.46Zm7.92 3.23-.19.46 1.98.81 1.98-.8-.19-.47-.19-.46-1.6.65-1.6-.65-.19.46Zm7.54-1.62.19.47 3.96-1.62-.2-.46-.18-.46-3.96 1.61.19.46Zm7.92-3.23.18.47 1.98-.81.2-2.22-.5-.05-.5-.04-.14 1.61-1.41.58.19.46Zm2.26-7.05.5.05.4-4.45-.5-.04-.5-.05-.4 4.45.5.04Zm.8-8.88.49.04.4-4.44-.5-.05-.5-.04-.4 4.44.5.05Zm.78-8.89.5.05.4-4.45-.5-.04-.5-.05-.4 4.45.5.04Z" fill="#7859CF"></path></svg><svg viewBox="0 0 52 56" fill="none" id="ecology-icon"><path fill-rule="evenodd" clip-rule="evenodd" d="M41.7 22.12c.78-6.56 1.5-12.77 7.3-18.12-26.5 0-34.15 8.13-38 14-8.54 13.04-.91 25.67.71 28.09a808.64 808.64 0 0 0-4.71 9.47l.88.44a825.82 825.82 0 0 1 4.63-9.32c2.6.87 14.45 4.19 21.99-4.68 5.66-6.66 6.45-13.44 7.2-19.88Z" fill="#F0EBFF"></path><path fill-rule="evenodd" clip-rule="evenodd" d="M8.23 41.05c3.96-7.8 8.46-15.96 13.04-21.05l.73.66c-4.57 5.08-9.07 13.3-13.03 21.12a26.2 26.2 0 0 0 7.12 1.22c4.38.12 9.66-.96 13.65-5.65 5.46-6.42 6.22-12.94 6.98-19.4l.02-.13c.68-5.81 1.38-11.64 5.87-16.8-11.79.23-19.48 2.16-24.67 4.68a23.8 23.8 0 0 0-10.1 8.85 22.6 22.6 0 0 0-2.94 18.88 28.93 28.93 0 0 0 3.33 7.63Zm-.52 1.04c-1.62-2.42-9.25-15.05-.71-28.09 3.78-5.76 11.23-13.7 36.55-14h1.45a22 22 0 0 0-1.02 1c-4.87 5.12-5.55 10.96-6.27 17.12-.76 6.44-1.55 13.22-7.21 19.88-7.54 8.87-19.4 5.55-21.99 4.68l-2.65 5.32c-.68 1.4-1.34 2.73-1.98 4l-.88-.44 1.97-3.96 2.74-5.51Z" fill="#7859CF"></path></svg><svg viewBox="0 0 16 16" fill="none" id="login"><path fill-rule="evenodd" clip-rule="evenodd" d="M10.67 4a2.67 2.67 0 1 1-5.34 0 2.67 2.67 0 0 1 5.34 0Zm1.33 0a4 4 0 1 1-8 0 4 4 0 0 1 8 0Zm-8.8 8.31a7.55 7.55 0 0 1 4.8-1.64c1.84 0 3.56.6 4.8 1.64a4.83 4.83 0 0 1 1.87 3.69h1.33c0-1.77-.84-3.46-2.34-4.71a8.88 8.88 0 0 0-5.66-1.96c-2.12 0-4.16.7-5.66 1.96a6.16 6.16 0 0 0-2.34 4.71h1.33c0-1.33.63-2.66 1.87-3.69Z" fill="#333"></path></svg><svg viewBox="0 0 24 24" fill="none" id="radio-checked"><circle cx="12" cy="12" r="11" fill="#fff" stroke="#7859CF" stroke-width="2"></circle><circle cx="12" cy="12" r="8" fill="#7859CF"></circle></svg><svg viewBox="0 0 24 24" fill="none" id="radio-disabled"><circle cx="12" cy="12" r="11" stroke="#E2E2E2" stroke-width="2"></circle></svg><svg viewBox="0 0 24 24" fill="none" id="radio"><circle cx="12" cy="12" r="11" fill="#fff" stroke="#BDBDBD" stroke-width="2"></circle></svg><svg viewBox="0 0 52 56" fill="none" id="speed-icon"><path fill-rule="evenodd" clip-rule="evenodd" d="M24 4h8v3h-3v3.02c3.82.16 7.39 1.26 10.5 3.06 1.85-1.93 6.26.17 4.76 3.66l-.1-.1a23 23 0 1 1-32.43.1c-2.02-3.03 2.59-6.16 4.77-3.66 3.11-1.8 6.68-2.9 10.5-3.06v-3.02h-3v-3Z" fill="#F0EBFF"></path><path fill-rule="evenodd" clip-rule="evenodd" d="M27 1h-6v1h6v-1Zm-2 2h3v-3h-8v3h3v3.02a22.87 22.87 0 0 0-9.6 2.57l-.15-.17c-1.53-1.76-3.85-1.44-5.3-.4a4.14 4.14 0 0 0-1.6 2.26c-.26.96-.1 2.02.56 3.01l.12.19a23 23 0 1 0 33.99.05l.16-.4c.47-1.08.5-2.13.17-3.04-.32-.9-.95-1.6-1.68-2.06-1.41-.89-3.54-1.06-4.9.36l-.17.2a22.87 22.87 0 0 0-9.6-2.57v-3.02Zm-1 4c-3.86 0-7.49 1-10.64 2.74l-.36.2a22 22 0 1 0 22 0l-.36-.2a21.9 21.9 0 0 0-10.64-2.74Zm-11.5 2.08a23.08 23.08 0 0 0-4.76 3.66 2.98 2.98 0 0 1-.44-.98c-.55-2.31 2.31-4.31 4.35-3.34.3.15.6.37.85.66Zm23 0a23.08 23.08 0 0 1 4.76 3.66c.17-.4.26-.77.3-1.12.2-2.33-2.32-3.74-4.1-3.14-.36.12-.69.32-.96.6Zm-11.5 21.92a2 2 0 0 0 .86-3.8l-.91-.2a2 2 0 0 0 .05 4Zm-.64-4.93-1.34-4.94-.04-.14.05-.15 1.5-4.5.47-1.42.47 1.42 1.5 4.5.05.15-.04.14-1.34 4.94.37.1 7.55-13.42.88.5-7.55 13.42a3 3 0 1 1-2.53-.6Zm-.34-5.06.98 3.59.98-3.59-.98-2.93-.98 2.93Z" fill="#7859CF"></path></svg><svg viewBox="0 0 42 24" fill="none" id="toggle-checked"><rect width="42" height="24" rx="12" fill="#7859CF"></rect><circle cx="30" cy="12" r="10" fill="#fff"></circle></svg><svg viewBox="0 0 42 24" fill="none" id="toggle-disabled"><rect width="42" height="24" rx="12" fill="#E2E2E2"></rect><circle cx="12" cy="12" r="10" fill="#F8F8F8"></circle></svg><svg viewBox="0 0 42 24" fill="none" id="toggle"><rect width="42" height="24" rx="12" fill="#BDBDBD"></rect><circle cx="12" cy="12" r="10" fill="#fff"></circle></svg></svg>
